epam-assets/icon-sources/18/editor-format_bold.svg

<svg width="18" height="18" viewBox="0 0 18 18" fill="none" xmlns="http://www.w3.org/2000/svg">
<g id="18/editor-format_bold">
<path id="icon" fill-rule="evenodd" clip-rule="evenodd" d="M11.85 9.20625C12.5944 8.66786 13.1163 7.78393 13.1163 6.96429C13.1163 5.14821 11.7733 3.75 10.0465 3.75H5.25V15H10.6528C12.2567 15 13.5 13.6339 13.5 11.9545C13.5 10.733 12.84 9.68839 11.85 9.20625ZM7.3125 6H9.60417C10.2382 6 10.75 6.5025 10.75 7.125C10.75 7.7475 10.2382 8.25 9.60417 8.25H7.3125V6ZM10.2 12.75H7.3125V10.5H10.2C10.8847 10.5 11.4375 11.0025 11.4375 11.625C11.4375 12.2475 10.8847 12.75 10.2 12.75Z" fill="#6C6F80"/>
</g>
</svg>

<svg xmlns="http://www.w3.org/2000/svg" width="18" height="18" fill="none" viewBox="0 0 18 18">
  <path fill="#6C6F80" fill-rule="evenodd" d="M11.85 9.206c.744-.538 1.266-1.422 1.266-2.242 0-1.816-1.343-3.214-3.07-3.214H5.25V15h5.403c1.604 0 2.847-1.366 2.847-3.046 0-1.221-.66-2.266-1.65-2.748ZM7.313 6h2.291c.634 0 1.146.503 1.146 1.125S10.238 8.25 9.604 8.25H7.313V6Zm2.887 6.75H7.313V10.5H10.2c.685 0 1.238.502 1.238 1.125s-.553 1.125-1.238 1.125Z" clip-rule="evenodd"/>
</svg>
